X: 1
T: Joy Go With My Love
M: 6/8
L: 1/8
R: jig
K: Dmaj
|:ag | f2 A Afe | d2 B Bde | fed edB |1 d3 d :|2 d3 d2 e ||
fga aeg | fdB Bde | fga aef | d3 d2 e |
fga aeg | fdB Bde | fed edB | d3 d |]
